X: 4034
T: MY AIN LASSIE
R: Strathspey.
%R: strathspey
B: James Kerr "Merry Melodies" v.4 p.07 #34
Z: 2016 John Chambers <jc:trillian.mit.edu>
M: C
L: 1/8
K: D
uA |\
F<A A>a g>fe>d | B<d A>F B<E E>G |\
F<A A>a g>fe>d | B<d A>G F<D D :|
|: A |\
F<A A>d B>dA>F | G<B A>F B<E E>G |\
F<A A>d B>dA>F | G<B A>G F<D D :|

%%sep 1 1 500
%%sep 1 1 500

